X:1
T: Miss Rona McLachlan
C:
R:Reel
Q: 232
K:G
M:4/4
L:1/8
|:d2|g3g d2 cB|e2 e2 c2 A2|G2 Bd g2 ag|f2 d2 d3((3def) |
g3g d2 cB|e2 e2 c2 A2|G2 FG A2 Bc|B2 G2 G2:|
|:d2|B3d g2 gf|e2 g2 d3B|G2 Bd g2 ag|f2 d2 d3B|
c2 de A2 Bc|B2 dg d2 B2|G2 FG A2 Bc|B2 G2 G2:|
